X:1
T:Wicked Polly
M:3/4
L:1/8
K:D
 AAA| d3 FG F| E3 AB B| A3 AA/2-G/2 E| D3 AA A| d3| FGF| E3 AB B| A3 AA/2-G/2 E|\
 D3||

